X: 125
T: No_5_Song_of_Earth_Magician_when_Disappearing_in_the_Ground.krn
N: Derived from No_5_Song_of_Earth_Magician_when_Disappearing_in_the_Ground.krn
%%abc-version 2.0
%%abcx-abcm2ps-target-version 5.9.1 (29 Sep 2008)
%%abc-creator hum2abc beta
%%abcx-conversion-date 2019/03/15 08:37:56
%%humdrum-veritas 3781078382
%%humdrum-veritas-data 3938249374
%%linebreak <none>
%%barnumbers 0
L: 1/8
M: 2/4
K: G clef=bass
[K:clef=bass][M:2/4]G,3/D/D2 [I:setbarnb 2]||  
[M:3/4]D3/D/D4 ||  
[M:2/4]D2CA, ||  
[M:3/4]C3/A,/A,2E,A,/ z/ ||  
[M:2/4]C2A,G, | 
G,2D,D,/ z/ | 
G,2A,G, ||  
[M:3/4]A,3/G,/G,4 ||  
[M:2/4]G,2E,D, | 
G,2G,2 :|]|:  
z4 | 
D2CA, ||  
[M:3/4]C3/A,/A,2E,A, ||  
[M:2/4]C2A,G, | 
G,2D,D,/ z/ | 
G,2A,G, ||  
[M:3/4]A,3/G,/G,4 ||  
[M:2/4]G,2E,D, | 
G,2G,2 :|]  



